z_dist/img/icons/crypto/bitcoin-BTC.svg

<svg width="64" height="64" viewBox="0 0 64 64" fill="none" xmlns="http://www.w3.org/2000/svg">
<g clip-path="url(#clip0_231_455)">
<rect width="64" height="64" rx="4" fill="#F7931A"/>
<path d="M47.2165 28.0324C47.8534 23.7739 44.6112 21.4848 40.1779 19.9578L41.6161 14.1893L38.1046 13.3143L36.7046 18.9309C35.7814 18.7007 34.8334 18.4837 33.8912 18.2687L35.3014 12.615L31.7921 11.74L30.3531 17.5066C29.5892 17.3327 28.8389 17.1608 28.1109 16.9797L28.115 16.9615L23.2726 15.7523L22.3385 19.5028C22.3385 19.5028 24.9437 20.1 24.8888 20.1367C26.3108 20.4916 26.5679 21.4329 26.5252 22.179L24.8869 28.7507C24.9848 28.7756 25.1118 28.8115 25.252 28.8678C25.1348 28.8388 25.0102 28.807 24.8808 28.776L22.5845 37.982C22.4107 38.4141 21.9697 39.0624 20.9755 38.8162C21.0107 38.8672 18.4233 38.1793 18.4233 38.1793L16.6799 42.1988L21.2495 43.3379C22.0996 43.5511 22.9327 43.7742 23.7531 43.9839L22.3 49.8186L25.8074 50.6936L27.2464 44.9208C28.2046 45.181 29.1345 45.4209 30.0448 45.6471L28.6107 51.3926L32.1223 52.2676L33.5752 46.4438C39.563 47.577 44.0654 47.1202 45.9605 41.7042C47.4875 37.3437 45.8844 34.8286 42.7343 33.1884C45.0287 32.6593 46.7569 31.1502 47.2177 28.0329L47.2166 28.0321L47.2165 28.0324ZM39.1936 39.2826C38.1084 43.6431 30.7666 41.2859 28.3864 40.6949L30.3146 32.9649C32.6948 33.5591 40.3277 34.7351 39.1937 39.2826H39.1936ZM40.2795 27.9693C39.2896 31.9356 33.179 29.9205 31.1968 29.4264L32.945 22.4158C34.9272 22.9099 41.3108 23.8321 40.2798 27.9693H40.2795Z" fill="white"/>
</g>
<defs>
<clipPath id="clip0_231_455">
<rect width="64" height="64" fill="white"/>
</clipPath>
</defs>
</svg>

<svg width="64" height="64" fill="none" xmlns="http://www.w3.org/2000/svg"><g clip-path="url(#clip0_231_455)"><rect width="64" height="64" rx="4" fill="#F7931A"/><path d="M47.217 28.032c.636-4.258-2.606-6.547-7.04-8.074l1.44-5.769-3.512-.875-1.4 5.617c-.924-.23-1.872-.447-2.814-.662l1.41-5.654-3.509-.875-1.439 5.767c-.764-.174-1.514-.346-2.242-.527l.004-.018-4.842-1.21-.934 3.75s2.605.598 2.55.635c1.422.355 1.679 1.296 1.636 2.042l-1.638 6.572c.098.025.225.06.365.117l-.371-.092-2.297 9.206c-.173.432-.614 1.08-1.608.834.035.051-2.553-.637-2.553-.637L16.68 42.2l4.57 1.139c.85.213 1.683.436 2.503.646L22.3 49.819l3.507.875 1.44-5.773c.958.26 1.887.5 2.798.726l-1.434 5.746 3.511.875 1.453-5.824c5.988 1.133 10.49.676 12.386-4.74 1.526-4.36-.077-6.875-3.227-8.516 2.295-.529 4.023-2.038 4.484-5.155h-.001zm-8.023 11.25c-1.086 4.361-8.427 2.004-10.808 1.413l1.929-7.73c2.38.594 10.013 1.77 8.879 6.318zm1.085-11.313c-.99 3.967-7.1 1.951-9.082 1.457l1.748-7.01c1.982.494 8.366 1.416 7.335 5.553z" fill="#fff"/></g><defs><clipPath id="clip0_231_455"><path fill="#fff" d="M0 0h64v64H0z"/></clipPath></defs></svg>
